X:3046
T:Willy O'Winsbury
C:anon.
O:England
F:http://abc.musicaviva.com/tunes/england/willy-owinsbury.abc
M:3/4
L:1/8
K:Em
D2|E2-E2 (FG)|G4(GA)|B4(B/A/B)|A4GF|
w:The king_ has_ been a_ pri-son---er, and a
E3EB2|(A3G)F2|E6-|E2z2D2|
w:pris-on-er long_ in Spain._ And
G4(GF)|E4D2|B,2D4|B,4B,B,|
w:Will-y_ of the Wins-bur-y has lain
A,2G,2G,2|B,D3(DE)|E6-|E2z2|]
w:long with his daught-er at_ home.
W:
W:The king has been a prisoner,
W:and a prisoner long in Spain.
W:And Willy of the Winsbury
W:has lain long with his daughter at home.
W:
W:
W:  From Musica Viva - http://www.musicaviva.com
W:  the Internet center for free sheet music downloads.

